X: 9970
T: Devil's Churn, The
R: reel
M: 4/4
K: Dminor
A d3 dcAd|cAGE CDEG|A d3 dcAd|cAGE FDDE|
D d3 dcAd|cAGE CDEG|Adfd efdf|efec D2 z2:|
Adfd efec|B2 fB gBfB|c2 gc acgc|c2 gc efe^c|
Adfd efec|B2 fB gBfB|c2 gc acgc|efe^c d2 z2:|

